img/heart.svg

<svg width="24" height="21" viewBox="0 0 24 21" fill="none" xmlns="http://www.w3.org/2000/svg">
<path d="M11.0244 4.0838L11.9162 5.84085L12.8079 4.0838C14.0617 1.61337 16.9825 0.642293 19.437 1.88799C21.8995 3.13772 22.8826 6.14704 21.6328 8.60948C21.3744 9.11875 20.7999 9.91853 19.9876 10.9144C19.1912 11.8907 18.2158 12.9964 17.205 14.1008C15.1929 16.2993 13.0688 18.4626 12.0023 19.5361C10.908 18.4682 8.7162 16.3033 6.64318 14.1014C5.60181 12.9953 4.59798 11.8879 3.78094 10.9101C2.94649 9.91153 2.36295 9.11352 2.10714 8.60948C0.857406 6.14704 1.8405 3.13772 4.30295 1.88799C6.76539 0.638261 9.7747 1.62136 11.0244 4.0838Z" stroke="black" stroke-width="2"/>
</svg>

<svg width="24" height="21" viewBox="0 0 24 21" fill="none" xmlns="http://www.w3.org/2000/svg"><path d="M11.024 4.084l.892 1.757.892-1.757c1.254-2.47 4.175-3.442 6.629-2.196a5 5 0 012.196 6.721c-.259.51-.833 1.31-1.645 2.305a77.118 77.118 0 01-2.783 3.187 194.778 194.778 0 01-5.203 5.435 191.287 191.287 0 01-5.359-5.435 75.188 75.188 0 01-2.862-3.19c-.835-1-1.418-1.797-1.674-2.302a5 5 0 018.917-4.525z" stroke="#000" stroke-width="2"/></svg>
